32x32/mimetypes/text-markdown.svg

<svg xmlns="http://www.w3.org/2000/svg" width="32" height="32" version="1.1">
 <path style="opacity:0.2" d="M 6.375,3 C 5.61325,3 5,3.6244 5,4.4 V 29.6 C 5,30.37504 5.61325,31 6.375,31 h 19.25 C 26.3862,31 27,30.37504 27,29.6 V 12 L 20,10 18,3 Z"/>
 <path style="fill:#f4f4f7" d="M 6.375,2 C 5.61325,2 5,2.6244 5,3.4 V 28.6 C 5,29.37504 5.61325,30 6.375,30 h 19.25 C 26.3862,30 27,29.37504 27,28.6 V 11 L 20,9 18,2 Z"/>
 <path style="opacity:0.2" d="M 27,12 18,3 v 7.59375 C 18,11.373375 18.62775,12 19.40625,12 Z"/>
 <path style="fill:#fafafa" d="M 27,11 18,2 V 9.59375 C 18,10.373375 18.62775,11 19.40625,11 Z"/>
 <path style="opacity:0.2;fill:#f4f4f7" d="M 6.375,2 C 5.61325,2 5,2.6247906 5,3.4003906 v 1 C 5,3.6247906 5.61325,3 6.375,3 H 18 V 2 Z"/>
 <path style="fill:#d74c4c" d="m 11,24 h 1 V 20.299714 L 14.000001,21.728286 16,20.299714 V 24 h 1 V 19 H 16 L 14.000001,20.428571 12,19 h -1"/>
 <path style="fill:#d74c4c" d="m 19,19 v 3 h -1.5 l 1.5,2 h 1 l 1.5,-2 H 20 v -3 z"/>
 <path style="fill:#d74c4c" d="M 8.9010409,17.000001 C 8.4111919,17.000001 8,17.397126 8,17.872539 v 7.252974 C 8,25.600926 8.4111919,26 8.9010409,26 H 23.098958 C 23.588808,26 23.999999,25.600926 24,25.125513 v -7.252974 c 0,-0.475413 -0.411192,-0.872538 -0.901042,-0.872538 z M 9,18 h 14 v 7 H 9 Z"/>
</svg>

<svg xmlns="http://www.w3.org/2000/svg" width="32" height="32"><path style="opacity:.2" d="M6.375 3C5.613 3 5 3.624 5 4.4v25.2c0 .775.613 1.4 1.375 1.4h19.25c.761 0 1.375-.625 1.375-1.4V12l-7-2-2-7z"/><path style="fill:#f4f4f7" d="M6.375 2C5.613 2 5 2.624 5 3.4v25.2c0 .775.613 1.4 1.375 1.4h19.25c.761 0 1.375-.625 1.375-1.4V11l-7-2-2-7z"/><path style="opacity:.2" d="m27 12-9-9v7.594c0 .78.628 1.406 1.406 1.406z"/><path style="fill:#fafafa" d="m27 11-9-9v7.594c0 .78.628 1.406 1.406 1.406z"/><path style="opacity:.2;fill:#f4f4f7" d="M6.375 2C5.613 2 5 2.625 5 3.4v1C5 3.625 5.613 3 6.375 3H18V2z"/><path style="fill:#d74c4c" d="M11 24h1v-3.7l2 1.428 2-1.428V24h1v-5h-1l-2 1.429L12 19h-1M19 19v3h-1.5l1.5 2h1l1.5-2H20v-3z"/><path style="fill:#d74c4c" d="M8.901 17c-.49 0-.901.397-.901.873v7.253c0 .475.411.874.901.874h14.198c.49 0 .901-.4.901-.874v-7.253c0-.476-.411-.873-.901-.873zM9 18h14v7H9z"/></svg>
